src/icons/icon_experienced.svg

<svg height="35" viewBox="0 0 35 35" width="35" xmlns="http://www.w3.org/2000/svg"><path d="m17.3789 0c-9.5823 0-17.3789 7.7959-17.3789 17.3782 0 9.5816 7.7959 17.3796 17.3782 17.3796 9.5816 0 17.3789-7.798 17.3789-17.3796 0-9.5823-7.7959-17.3782-17.3782-17.3782zm9.6012 16.1077-5.0316 3.6407 1.9383 5.922c.0308.0931.0469.1911.0469.2919 0 .5173-.42.9373-.9373.9373-.2051 0-.3934-.0658-.5474-.1764l-5.0708-3.668-5.0701 3.668c-.154.1106-.343.1764-.5481.1764-.518 0-.9373-.4193-.9373-.9373 0-.1022.0168-.1988.0476-.2919l1.9383-5.922-5.0309-3.64v-.0007c-.2352-.1694-.3878-.4459-.3878-.7581 0-.5173.4186-.9359.9366-.9359h6.2279l1.9285-5.8947c.1176-.3829.4739-.6615.896-.6615s.7784.2786.896.6615l1.9278 5.8947h6.2272c.5173 0 .9366.4186.9366.9359.0007.3122-.1519.5887-.3864.7581z"/></svg>

<?xml version="1.0" encoding="UTF-8"?>
<svg width="35px" height="35px" viewBox="0 0 35 35" version="1.1" xmlns="http://www.w3.org/2000/svg" xmlns:xlink="http://www.w3.org/1999/xlink">
    <!-- Generator: sketchtool 46.2 (44496) - http://www.bohemiancoding.com/sketch -->
    <title>58945409-9C33-496C-9355-539B6BED2754</title>
    <desc>Created with sketchtool.</desc>
    <defs></defs>
    <g id="Symbols" stroke="none" stroke-width="1" fill="none" fill-rule="evenodd">
        <g id="icon_experienced" fill-rule="nonzero" fill="#000000">
            <g id="Shape">
                <path d="M17.3789,0 C7.7966,0 0,7.7959 0,17.3782 C0,26.9598 7.7959,34.7578 17.3782,34.7578 C26.9598,34.7578 34.7571,26.9598 34.7571,17.3782 C34.7571,7.7959 26.9612,0 17.3789,0 Z M26.9801,16.1077 L26.9801,16.1077 L21.9485,19.7484 L23.8868,25.6704 C23.9176,25.7635 23.9337,25.8615 23.9337,25.9623 C23.9337,26.4796 23.5137,26.8996 22.9964,26.8996 C22.7913,26.8996 22.603,26.8338 22.449,26.7232 L17.3782,23.0552 L12.3081,26.7232 C12.1541,26.8338 11.9651,26.8996 11.76,26.8996 C11.242,26.8996 10.8227,26.4803 10.8227,25.9623 C10.8227,25.8601 10.8395,25.7635 10.8703,25.6704 L12.8086,19.7484 L7.7777,16.1084 L7.7777,16.1077 C7.5425,15.9383 7.3899,15.6618 7.3899,15.3496 C7.3899,14.8323 7.8085,14.4137 8.3265,14.4137 L14.5544,14.4137 L16.4829,8.519 C16.6005,8.1361 16.9568,7.8575 17.3789,7.8575 C17.801,7.8575 18.1573,8.1361 18.2749,8.519 L20.2027,14.4137 L26.4299,14.4137 C26.9472,14.4137 27.3665,14.8323 27.3665,15.3496 C27.3672,15.6618 27.2146,15.9383 26.9801,16.1077 Z"></path>
            </g>
        </g>
    </g>
</svg>
